src/sprite-icons/spent.svg

<svg width="48" height="49" viewBox="0 0 48 49" fill="none" xmlns="http://www.w3.org/2000/svg">
  <path d="M0 44.075C0 37.4 0 30.8 0 24.125C0.3 23.15 1.05 22.625 1.875 22.175C2.175 22.025 2.475 21.875 2.775 21.8C3.15 21.725 3.225 21.5 3.225 21.2C3.225 16.475 3.225 11.825 3.225 7.1C3.225 3.725 5.625 1.25 8.85 1.25C19.95 1.25 31.125 1.25 42.225 1.25C43.8 1.25 44.775 2.225 44.775 3.875C44.775 6.05 44.775 8.225 44.775 10.4C44.775 10.55 44.775 10.775 44.775 10.925C47.025 11.675 48 12.95 48 15.275C48 23 48 30.8 48 38.525C48 38.975 48 39.425 47.85 39.875C47.4 41.675 45.825 42.875 43.8 42.875C37.125 42.875 30.525 42.875 23.85 42.875C23.625 42.875 23.475 42.875 23.25 42.875C23.25 42.95 23.25 42.95 23.25 42.95C23.25 43.025 23.25 43.1 23.25 43.175C23.325 44.3 22.8 45.125 21.825 45.65C21 46.1 20.1 46.475 19.275 46.7C16.875 47.375 14.325 47.6 11.85 47.6C8.925 47.6 6 47.375 3.15 46.4C1.8 46.025 0.525 45.5 0 44.075ZM46.425 22.85C46.425 22.625 46.425 22.475 46.425 22.325C46.425 19.925 46.425 17.525 46.425 15.125C46.425 13.4 45.45 12.425 43.725 12.425C32.175 12.425 20.55 12.425 9 12.425C7.5 12.425 6.15 11.975 5.025 11C4.95 10.925 4.875 10.925 4.8 10.85C4.8 14.3 4.8 17.675 4.8 21.05C4.95 21.05 5.1 21.05 5.25 20.975C9.225 20.15 13.2 20.15 17.25 20.825C18.825 21.05 20.4 21.5 21.825 22.325C22.725 23 23.25 23.75 23.25 24.95C23.175 30.2 23.25 35.375 23.25 40.625C23.25 40.85 23.25 41 23.25 41.225C23.4 41.225 23.55 41.225 23.7 41.225C30.45 41.225 37.125 41.225 43.875 41.225C45.45 41.225 46.5 40.25 46.5 38.6C46.5 36.2 46.5 33.725 46.5 31.325C46.5 31.175 46.5 31.025 46.5 30.875C45.225 30.875 43.95 30.875 42.75 30.875C42.15 30.875 41.55 30.8 40.95 30.575C39.225 29.9 38.25 27.95 38.625 26.15C39 24.275 40.575 22.925 42.45 22.925C43.65 22.85 45 22.85 46.425 22.85ZM43.2 7.625C42.975 7.625 42.75 7.625 42.525 7.625C30.9 7.625 19.2 7.625 7.575 7.625C6.75 7.625 6.375 7.325 6.375 6.8C6.375 6.275 6.75 5.975 7.575 5.975C19.2 5.975 30.9 5.975 42.525 5.975C42.75 5.975 42.9 5.975 43.2 5.975C43.2 5.225 43.2 4.55 43.2 3.95C43.2 3.05 42.975 2.825 42.075 2.825C31.05 2.825 20.1 2.825 9.075 2.825C8.7 2.825 8.325 2.825 8.025 2.9C6 3.35 4.65 5.225 4.8 7.1C5.025 9.2 6.675 10.775 8.775 10.775C20.1 10.775 31.425 10.775 42.825 10.775C42.975 10.775 43.05 10.775 43.2 10.7C43.2 9.8 43.2 8.75 43.2 7.625ZM11.625 22.025C9.375 22.025 7.125 22.175 4.95 22.775C3.975 23.075 3 23.45 2.1 23.9C1.425 24.275 1.425 24.65 2.1 25.025C2.625 25.325 3.15 25.55 3.675 25.775C5.4 26.375 7.125 26.6 8.925 26.75C12.075 26.975 15.225 26.9 18.375 26.15C19.275 25.925 20.175 25.55 21.075 25.1C21.825 24.725 21.825 24.275 21.075 23.825C20.625 23.525 20.1 23.3 19.575 23.15C16.95 22.25 14.325 22.1 11.625 22.025ZM1.575 26.675C1.575 27.35 1.65 28.025 1.575 28.7C1.5 29.3 1.8 29.75 2.325 29.975C3.45 30.35 4.5 30.875 5.7 31.1C8.85 31.775 12 31.775 15.225 31.475C17.025 31.325 18.75 30.95 20.475 30.275C21.3 29.9 21.825 29.45 21.675 28.4C21.6 27.875 21.675 27.275 21.675 26.75C15.15 29.075 7.875 29.075 1.575 26.675ZM1.575 36.275C1.575 37.025 1.65 37.7 1.575 38.375C1.575 38.975 1.8 39.35 2.25 39.5C3.075 39.875 3.9 40.25 4.8 40.475C9 41.525 13.275 41.45 17.55 40.7C18.75 40.475 19.95 40.175 21 39.5C21.225 39.35 21.6 39.125 21.6 38.825C21.675 38 21.6 37.1 21.6 36.2C18.375 37.7 15 38 11.625 38C8.175 38.075 4.8 37.775 1.575 36.275ZM1.575 41.075C1.575 41.825 1.575 42.5 1.575 43.25C1.575 43.775 1.725 44.15 2.175 44.375C3 44.75 3.75 45.125 4.575 45.35C8.85 46.4 13.2 46.4 17.55 45.575C18.675 45.35 19.8 44.825 20.925 44.45C21.15 44.375 21.525 44.075 21.525 43.85C21.6 43.025 21.525 42.125 21.525 41.225C15.225 43.475 7.875 43.475 1.575 41.075ZM21.6 31.475C18.375 32.975 15 33.275 11.625 33.275C8.25 33.275 4.8 32.975 1.65 31.475C1.65 32.3 1.65 33.05 1.65 33.8C1.65 34.175 1.8 34.475 2.1 34.625C2.7 34.925 3.3 35.225 3.9 35.45C5.85 36.125 7.95 36.35 9.975 36.425C12.825 36.575 15.675 36.425 18.45 35.675C19.35 35.45 20.25 35 21.075 34.625C21.3 34.55 21.6 34.175 21.6 33.95C21.6 33.2 21.6 32.375 21.6 31.475ZM46.35 29.225C46.35 27.575 46.35 26 46.35 24.425C44.925 24.425 43.575 24.425 42.225 24.425C41.025 24.5 40.05 25.55 40.05 26.75C40.05 27.95 40.95 29.075 42.15 29.15C43.5 29.3 44.925 29.225 46.35 29.225Z" fill="#CF51CE"/>
  <path d="M38.0253 15.6505C36.0753 15.6505 34.1253 15.6505 32.2503 15.6505C31.9503 15.6505 31.6503 15.5005 31.4253 15.3505C31.2753 15.2005 31.2003 14.7505 31.3503 14.6005C31.5003 14.3755 31.8003 14.1505 32.1003 14.1505C32.7003 14.0755 33.3003 14.1505 33.9003 14.1505C37.2003 14.1505 40.4253 14.1505 43.7253 14.1505C43.8753 14.1505 43.9503 14.1505 44.1003 14.1505C44.5503 14.2255 44.9253 14.5255 44.9253 14.9755C44.9253 15.4255 44.5503 15.7255 44.1003 15.7255C42.6753 15.7255 41.3253 15.7255 39.9003 15.7255C39.2253 15.6505 38.6253 15.6505 38.0253 15.6505Z" fill="#CF51CE"/>
  <path d="M27.9744 15.6512C27.6744 15.6512 27.3744 15.6512 27.1494 15.6512C26.6994 15.6512 26.3994 15.3512 26.3994 14.9012C26.3994 14.4512 26.6994 14.0762 27.1494 14.0762C27.7494 14.0762 28.2744 14.0762 28.8744 14.0762C29.3244 14.0762 29.6244 14.4512 29.6244 14.9012C29.6244 15.3512 29.2494 15.6512 28.7994 15.6512C28.4994 15.6512 28.2744 15.6512 27.9744 15.6512Z" fill="#CF51CE"/>
  <path d="M42.3738 27.65C41.9238 27.65 41.5488 27.275 41.5488 26.825C41.5488 26.375 41.9238 26 42.3738 26C42.8238 26 43.1238 26.375 43.1238 26.75C43.1988 27.275 42.8238 27.65 42.3738 27.65Z" fill="#CF51CE"/>
</svg>

<svg width="48" height="49" fill="none" xmlns="http://www.w3.org/2000/svg"><path d="M0 44.075v-19.95c.3-.975 1.05-1.5 1.875-1.95.3-.15.6-.3.9-.375.375-.075.45-.3.45-.6V7.1c0-3.375 2.4-5.85 5.625-5.85h33.375c1.575 0 2.55.975 2.55 2.625V10.925c2.25.75 3.225 2.025 3.225 4.35v23.25c0 .45 0 .9-.15 1.35-.45 1.8-2.025 3-4.05 3H23.25v.3c.075 1.125-.45 1.95-1.425 2.475-.825.45-1.725.825-2.55 1.05-2.4.675-4.95.9-7.425.9-2.925 0-5.85-.225-8.7-1.2C1.8 46.025.525 45.5 0 44.075ZM46.425 22.85V15.125c0-1.725-.975-2.7-2.7-2.7H9c-1.5 0-2.85-.45-3.975-1.425-.075-.075-.15-.075-.225-.15v10.2c.15 0 .3 0 .45-.075 3.975-.825 7.95-.825 12-.15 1.575.225 3.15.675 4.575 1.5.9.675 1.425 1.425 1.425 2.625-.075 5.25 0 10.425 0 15.675v.6h20.625c1.575 0 2.625-.975 2.625-2.625V30.875h-3.75c-.6 0-1.2-.075-1.8-.3-1.725-.675-2.7-2.625-2.325-4.425.375-1.875 1.95-3.225 3.825-3.225 1.2-.075 2.55-.075 3.975-.075ZM43.2 7.625H7.575c-.825 0-1.2-.3-1.2-.825 0-.525.375-.825 1.2-.825H43.2V3.95c0-.9-.225-1.125-1.125-1.125h-33c-.375 0-.75 0-1.05.075C6 3.35 4.65 5.225 4.8 7.1c.225 2.1 1.875 3.675 3.975 3.675h34.05c.15 0 .225 0 .375-.075V7.625Zm-31.575 14.4c-2.25 0-4.5.15-6.675.75-.975.3-1.95.675-2.85 1.125-.675.375-.675.75 0 1.125.525.3 1.05.525 1.575.75 1.725.6 3.45.825 5.25.975 3.15.225 6.3.15 9.45-.6.9-.225 1.8-.6 2.7-1.05.75-.375.75-.825 0-1.275-.45-.3-.975-.525-1.5-.675-2.625-.9-5.25-1.05-7.95-1.125Zm-10.05 4.65c0 .675.075 1.35 0 2.025-.075.6.225 1.05.75 1.275 1.125.375 2.175.9 3.375 1.125 3.15.675 6.3.675 9.525.375a18.39 18.39 0 0 0 5.25-1.2c.825-.375 1.35-.825 1.2-1.875-.075-.525 0-1.125 0-1.65-6.525 2.325-13.8 2.325-20.1-.075Zm0 9.6c0 .75.075 1.425 0 2.1 0 .6.225.975.675 1.125.825.375 1.65.75 2.55.975 4.2 1.05 8.475.975 12.75.225 1.2-.225 2.4-.525 3.45-1.2.225-.15.6-.375.6-.675.075-.825 0-1.725 0-2.625-3.225 1.5-6.6 1.8-9.975 1.8-3.45.075-6.825-.225-10.05-1.725Zm0 4.8v2.175c0 .525.15.9.6 1.125.825.375 1.575.75 2.4.975 4.275 1.05 8.625 1.05 12.975.225 1.125-.225 2.25-.75 3.375-1.125.225-.075.6-.375.6-.6.075-.825 0-1.725 0-2.625-6.3 2.25-13.65 2.25-19.95-.15Zm20.025-9.6c-3.225 1.5-6.6 1.8-9.975 1.8s-6.825-.3-9.975-1.8V33.8c0 .375.15.675.45.825.6.3 1.2.6 1.8.825 1.95.675 4.05.9 6.075.975 2.85.15 5.7 0 8.475-.75.9-.225 1.8-.675 2.625-1.05.225-.075.525-.45.525-.675v-2.475Zm24.75-2.25v-4.8h-4.125c-1.2.075-2.175 1.125-2.175 2.325 0 1.2.9 2.325 2.1 2.4 1.35.15 2.775.075 4.2.075Z" fill="#CF51CE"/><path d="M38.025 15.65H32.25c-.3 0-.6-.15-.825-.3-.15-.15-.225-.6-.075-.75.15-.224.45-.45.75-.45.6-.075 1.2 0 1.8 0h10.2c.45.075.825.375.825.825 0 .45-.375.75-.825.75h-4.2c-.675-.075-1.275-.075-1.875-.075ZM27.974 15.651h-.825c-.45 0-.75-.3-.75-.75s.3-.825.75-.825h1.725c.45 0 .75.375.75.825 0 .45-.375.75-.825.75h-.825ZM42.374 27.65a.832.832 0 0 1-.825-.825c0-.45.375-.825.825-.825.45 0 .75.375.75.75.075.525-.3.9-.75.9Z" fill="#CF51CE"/></svg>
